dist/svg/u1F51D.svg

<?xml version="1.0" encoding="UTF-8"?><svg id="a" xmlns="http://www.w3.org/2000/svg" viewBox="0 0 40 40"><g opacity="0"><path d="M0,0V40H40V0H0ZM25.19,23.11c0,.41-.33,.75-.74,.75H15.96c-.41,0-.75-.34-.75-.75l-.12-8.98h-4.49c-.99,0-1.49-1.21-.78-1.91L19.31,2.89c.43-.42,1.12-.42,1.56,0l9.48,9.33c.71,.7,.22,1.91-.78,1.91h-4.38v8.98Z" fill="none"/></g><g><path d="M29.57,14.13h-4.38v8.98c0,.41-.33,.75-.74,.75H15.96c-.41,0-.75-.34-.75-.75l-.12-8.98h-4.49c-.99,0-1.49-1.21-.78-1.91L19.31,2.89c.43-.42,1.12-.42,1.56,0l9.48,9.33c.71,.7,.22,1.91-.78,1.91Z" fill="#4e5968"/><g><path d="M12.022,37.229h-1.963v-7.892h-2.679v-1.807h7.32v1.807h-2.679v7.892Z" fill="#4e5968"/><path d="M14.938,32.393c0-3.367,2.197-5.058,4.654-5.058,2.444,0,4.641,1.69,4.641,5.058,0,3.341-2.197,5.031-4.641,5.031-2.457,0-4.654-1.69-4.654-5.031Zm4.654,3.276c1.37,0,2.604-.819,2.604-3.276,0-2.471-1.234-3.303-2.604-3.303-1.383,0-2.617,.832-2.617,3.303,0,2.457,1.234,3.276,2.617,3.276Z" fill="#4e5968"/><path d="M32.62,30.82c0,1.976-1.444,3.302-3.542,3.302h-1.593v3.107h-1.975v-9.698h3.839c2.049,0,3.271,1.3,3.271,3.289Zm-4.11,1.56c1.185,0,2.074-.429,2.074-1.56,0-1.118-.864-1.561-2.012-1.561h-1.086v3.12h1.025Z" fill="#4e5968"/></g></g></svg>

<svg id="Layer_1" data-name="Layer 1" xmlns="http://www.w3.org/2000/svg" viewBox="0 0 40 40"><defs><style>.cls-1{fill:none;opacity:0;}.cls-2{fill:#4e5968;}</style></defs><rect class="cls-1" width="40" height="40"/><path class="cls-2" d="M20.867,2.894l9.487,9.331a1.111,1.111,0,0,1-.779,1.9H10.6a1.111,1.111,0,0,1-.779-1.9l9.487-9.331A1.111,1.111,0,0,1,20.867,2.894Z"/><path class="cls-2" d="M25.194,12.3V23.109a.751.751,0,0,1-.749.748H15.962a.751.751,0,0,1-.749-.748L15.06,12.3a.751.751,0,0,1,.748-.749h8.637A.751.751,0,0,1,25.194,12.3Z"/><path class="cls-2" d="M12.022,37.229H10.059V29.338H7.38V27.531H14.7v1.807H12.022Z"/><path class="cls-2" d="M14.938,32.393c0-3.367,2.2-5.057,4.654-5.057s4.641,1.69,4.641,5.057c0,3.341-2.2,5.032-4.641,5.032S14.938,35.734,14.938,32.393Zm4.654,3.277c1.37,0,2.605-.82,2.605-3.277s-1.235-3.3-2.605-3.3-2.617.832-2.617,3.3S18.209,35.67,19.592,35.67Z"/><path class="cls-2" d="M32.62,30.82a3.256,3.256,0,0,1-3.543,3.3H27.485v3.107H25.51v-9.7h3.839A3.047,3.047,0,0,1,32.62,30.82Zm-4.11,1.56c1.185,0,2.073-.429,2.073-1.56s-.864-1.56-2.012-1.56H27.485v3.12Z"/></svg>
